X:1
T:Louez Dieu, 77.77
T:Louez Dieu, 77.77
T:Genevan Psalter, 1562
T:Public Domain Courtesy of the Cyber Hymnal™
C:Genevan Psalter, 1562
Z:Public Domain
Z:Courtesy of the Cyber Hymnal™
%%score ( 1 2 ) ( 3 4 )
L:1/8
M:none
K:D
V:1 treble 
V:2 treble 
V:3 bass 
V:4 bass 
V:1
 [A,D]4 [B,D]4 | [B,G]2 [DA]2 [DB]2 [G=c]2 | d8 | [GB]4 [Gd]4 |[M:3/2] [G=c]2 [GB]2 G4 [FA]4 | G8 | %6
 [GB]4 [FA]4 | [_FG]2 [EG]2 [A=c]2 [Gc]2 | [FB]8 | [EG]4 [EA]4 | [DF]2 [DG]2 [DE]2 [CE]2 | D8 |] %12
V:2
 x8 | x8 | (G4 F4) | x8 |[M:3/2] x4 G4 x4 | G8 | x8 | x8 | x8 | x8 | x8 | D8 |] %12
V:3
 [D,F,]4 [B,,F,]4 | [E,G,]2 [D,F,]2 G,2 [E,G,]2 | [D,A,]8 | G,4 [F,B,]4 | %4
[M:3/2] [E,=C]2 [D,D]2 [B,,D]4 (D2 C2) | [G,,B,]8 | [G,D]4 [D,D]4 | %7
 [E,B,]2 [E,B,]2 [A,,E]2 [A,,E]2 | [B,,^D]8 | [E,B,]4 [C,A,]4 | %10
 [D,A,]2 [G,,B,]2 [A,,A,]2 [A,,A,]2 | [D,F,]8 |] %12
V:4
 x8 | x4 G,2 x2 | x8 | G,4 x4 |[M:3/2] x8 D,4 | x8 | x8 | x8 | x8 | x8 | x8 | x8 |] %12

